icons/layout-compact-32.svg

<svg xmlns="http://www.w3.org/2000/svg" viewBox="0 0 32 32"><path d="M30 27H2v-5h28v5zM3 26h26v-3H3v3zm27-7H2v-5h28v5zM3 18h26v-3H3v3zm27-7H2V6h28v5zM3 10h26V7H3v3z"/><path fill="none" d="M0 0h32v32H0z"/></svg>

<?xml version="1.0" encoding="UTF-8"?><svg id="icons" xmlns="http://www.w3.org/2000/svg" viewBox="0 0 32 32"><defs><style>.cls-1{fill:none;}</style></defs><path d="M30,27H2v-5H30v5Zm-27-1H29v-3H3v3Zm27-7H2v-5H30v5Zm-27-1H29v-3H3v3Zm27-7H2V6H30v5ZM3,10H29v-3H3v3Z"/><rect class="cls-1" width="32" height="32"/></svg>
